X: 40941
T: Trip To Bucharest
R: jig
M: 6/8
K: Cdorian
|:CDE FGc|ABF GFD|CDE_A,2 G,|G, B, D EDB,|
CDE FGc|ABF GFD|CDE_A,2 G,|G,B,D C2 B,:|
|:CDE _A,2 G,|G,B,D C3|_A,CD EGB|ABF GFD|
CDE _A,2 G,|G,B,D C2 G,|_A,CD EGF|D2 B, C2 B,:|
|:C2 c ABF|G2 A G3|G2 A B3|B2 A GFD|
C2 c ABF|G2 A GFD|CDE _A,2 G,|G,B,D C3:|

